X:1
T:Murka
T:Мурка
T:Музыка неизвестного автора Аранжировка для двух скрипок Александра Евстюгова
C:Author unknown, ca 1920
%%score [ 1 2 ]
L:1/8
Q:1/4=102
M:4/4
K:F
V:1 treble nm="Violin I"
V:2 treble nm="Violin II"
V:1
 z8 |!mf! (f3/2e>)(d^c/) (ed3/2) z3/2 | (d3/2c>)(BA/) (cB3/2) z3/2 | AA(cB) AG(FE) | D4 z4 || %5
!>(! A A2 (^G/A/ B A2) z | (G3/2F>)(EF/ E!>)!!mp!D3/2) z3/2 |!mf! d!<(!d(^cd) (ed)cd | e4!<)! z4 | %9
!mf! (fe)d^c (ed) z2 | (dc)BA (cB) z2 | AA(cB) AG(FE) | D4 z4 |!mf! (f3/2e>)(d^c/) (ed3/2) z3/2 | %14
 (d3/2c>)(BA/) (cB3/2) z3/2 |!>(! A3/2A>(cB/) A3/2G>(FE/)!>)! |!mp! D4 z4 ||!mf! f2 d2 z fed | %18
 (g3 f e4) | e2 ^c2 z edc | (f2 e2) d4 |!mf! d2 B2 z d^c!>(!d | (f e2)!>)!!mp! d2 A!mf!^GA | %23
!>(! f4 e4!>)! |!mf! d2!mf! A2 =B2 ^c2 ||!f! f3/2e>(d^c/) ed3/2 z3/2 | %26
!mf! (d3/2c>)(BA/) cB3/2 z3/2 |!>(! AA(cB) AGFE!>)! |!mp! !fermata!D4 z4 |] %29
V:2
!mf! !tenuto!.A,2 !tenuto!.A,2 !tenuto!.=B,2 !tenuto!.^C2 |!mf! D2 E2 F2 z2 | ^F2 D2 G2 z2 | %3
!>(! A,2 D2 ^C2 z2 | z2 !tenuto!.A,2 !tenuto!.=B,2 !tenuto!.^C2!>)! ||!p! D2 A,2 D4 | %6
!>(! E2 ^C2!>)!!p! A,4 |!<(! !tenuto!.G,2 !tenuto!.B,2 !tenuto!.D2 ^G2!<)! | %8
!mp! A2!>(! E2 ^C2 A,2!>)! |!p! D2 E2 F2 z2 |!p! ^F2 D2 G2 z2 |!p! F2 D2 E2 ^C2 | D2 A,2 =B,2 ^C2 | %13
 D2 ^C2 D2 F2 | ^F2 D2 G2 D2 | A,2 D2 ^C2 A,2 | D2!>(! A,2 =B,2 ^C2!>)! ||!p! D2 F2 A2 F2 | %18
 B2 A2 G2 D2 | ^C2 E2 G2 E2 | D2!<(! ^C2 D2 ^F2!<)! |!p! G2 D2 B,2 G2 | F2 D2 A,2 D2 | %23
 ^G,2 =B,2 A,2 ^C2 | D2!mf! A,2 =B,2 ^C2 ||!mf! D2 ^C2 D2 F2 | ^F2!>(! D2 G2 z2!>)! | %27
!mp! =F2 z2 ^C2 z2 |!p! D4 z4 |] %29

